gtk/icons/scalable/actions/edit-clear-symbolic-rtl.svg

<svg width='16' height='16'
     xmlns:gpa='https://www.gtk.org/grappa'
     gpa:version='1'
     gpa:keywords='edit clear RTL input entry'
     gpa:state='0'>
  <path d='M 14 9 L 11 12 C 10.360652 12.6415663, 9.49174309 13.0015125, 8.58600044 13 L 3 13 C 1.89543045 13, 1 12.1045694, 1 11 L 1 5 C 1 3.89543056, 1.89543045 3, 3 3 L 9.58600044 3 C 10.4796629 2.99976826, 11.3249168 3.40602016, 11.8830004 4.10400009 L 14.1169996 6.89599991 C 14.6196642 7.52473831, 14.5692759 8.43087006, 14 9 Z'
        id='path0'
        stroke-width='2'
        stroke-linecap='round'
        stroke-linejoin='round'
        stroke='rgb(0,0,0)'
        fill='none'
        class='foreground-stroke transparent-fill'/>
  <path d='M 8 10 L 4 6 M 8 6 L 4 10'
        id='path1'
        stroke-width='1'
        stroke-linecap='round'
        stroke-linejoin='round'
        stroke='rgb(0,0,0)'
        fill='none'
        class='foreground-stroke transparent-fill'/>
</svg>

<svg xmlns="http://www.w3.org/2000/svg" width="16" height="16" viewBox="0 0 16 16"><path d="m14 9-3 3a3.4 3.4 0 0 1-2.414 1H3a2 2 0 0 1-2-2V5a2 2 0 0 1 2-2h6.586a2.94 2.94 0 0 1 2.297 1.104l2.234 2.792A1.58 1.58 0 0 1 14 9z" class="foreground-stroke transparent-fill" style="fill:none;stroke:#241f31;stroke-width:2;stroke-dasharray:none;paint-order:stroke markers fill"/><path d="M8 10 4 6m4 0-4 4" class="foreground-stroke transparent-fill" style="fill:none;stroke:#241f31;stroke-width:2;stroke-linecap:round;stroke-dasharray:none;paint-order:stroke markers fill"/></svg>
